X:1
T:Vox Angelica, 11.10.11.10.9.11
T:Vox Angelica, 11.10.11.10.9.11
T:John Bacchus Dykes, 1868
T:Public Domain Courtesy of the Cyber Hymnal™
C:John Bacchus Dykes, 1868
Z:Public Domain
Z:Courtesy of the Cyber Hymnal™
%%score ( 1 2 ) ( 3 4 )
L:1/8
M:4/4
K:F
V:1 treble 
V:2 treble 
V:3 bass 
V:4 bass 
V:1
 [CF]4 [FA]2 [FA]2 | [Ec]6 [Fc]2 | [Dd]2 [Ec]2 [CA]2 F2 | (A2 G2) F4 | [FA]4 [FA]2 [FA]2 | %5
 [Fd]6 [Ec]2 | [Fc]2 [F=B]2 [FA]2 [FB]2 | [Ec]8 x4 | [Ec]4 [Ec]2 [Dd]2 | B4- B2 B2 | %10
 [_E_A]2 [Ec]2 B2 A2 | [DG]4 [DG]4 | [EG]4 [EA]2 [EG]2 | [Fc]2 [_Ec]2 [DB]2 D2 | F4 (A3 G) | F8 |] %16
V:2
 x8 | x8 | x8 | E4 x4 | x8 | x8 | x8 | x12 | x8 | D4 _E4 | x4 F2- F_E | x8 | x8 | x8 | (C2 D2) E4 | %15
 C8 |] %16
V:3
 [F,A,]4 [F,C]2 [D,D]2 | [C,G,]6 [F,A,]2 | [B,,B,]2 [C,G,]2 [F,A,]2 [A,C]2 | (C2 B,2) [F,A,]4 | %4
 [F,C]4 [D,D]2 [C,D]2 | [=B,,G,]6 [C,G,]2 | [G,,G,]2 [G,D]2 [G,C]2 [G,D]2 | z4 x8 | %8
 [A,C]4 [A,C]2 [^F,A,]2 | [G,B,]4 [G,B,]4 | [F,C]2 [F,_E]2 [F,D]2 [F,C]2 | [G,=B,]4 [G,B,]4 | %12
 [G,C]4 [G,C]2 [B,C]2 | [A,C]2 [^F,A,]2 [G,B,]2 [B,,B,]2 | (A,2 =B,2) (C2 _B,2) | [C,F,A,]8 |] %16
V:4
 x8 | x8 | x8 | C,4 x4 | x8 | x8 | x8 | C8 B,4 | x8 | x8 | x8 | x8 | x8 | x8 | C,4 C,4 | x8 |] %16

